Adwaita++-Light/panel/16/camera-off.svg

<svg height="16" width="16" xmlns="http://www.w3.org/2000/svg">
  <path d="m8 1c-3.3137 0-6 2.6863-6 6 0 2.087 1.0708 3.925 2.6875 5h-.6875c-2 0-2 2-2 2v1h12v-1s0-2-2-2h-.687c1.617-1.075 2.687-2.913 2.687-5 0-3.3137-2.686-6-6-6zm0 4.0039a2 2 0 0 1 2 2.0001 2 2 0 0 1 -2 2 2 2 0 0 1 -2-2 2 2 0 0 1 2-2.0001z" fill="#4285f4"/>
</svg>

<svg xmlns="http://www.w3.org/2000/svg" width="16" height="16" version="1.1">
 <defs>
  <style id="current-color-scheme" type="text/css">
   .ColorScheme-Text { color:#444444; } .ColorScheme-Highlight { color:#4285f4; }
  </style>
 </defs>
 <path style="fill:currentColor" class="ColorScheme-Highlight" d="M 8,1 C 4.6863,1 2,3.6863 2,7 2,9.087 3.0708,10.925 4.6875,12 H 4 C 2,12 2,14 2,14 V 15 H 14 V 14 C 14,14 14,12 12,12 H 11.313 C 12.93,10.925 14,9.087 14,7 14,3.6863 11.314,1 8,1 Z M 8,5.0039 A 2,2 0 0 1 10,7.004 2,2 0 0 1 8,9.004 2,2 0 0 1 6,7.004 2,2 0 0 1 8,5.0039 Z"/>
</svg>
